file/cnbc.svg

<svg clip-rule="evenodd" fill-rule="evenodd" stroke-linejoin="round" stroke-miterlimit="1.41421" viewBox="0 0 560 400" xmlns="http://www.w3.org/2000/svg"><g fill-rule="nonzero" transform="matrix(.385271 0 0 .385271 145 92.1071)"><path d="m350.379 53.459c-10.925-27.278-37.54-56.738-87.388-52.691-63.499 6.903-83.287 67.756-73.689 104.059-25.291-17.125-68.294-24.655-105.829 7.497-48.464 48.581-22.541 114.281 4.101 130.04-29.362-2.718-75.768 17.122-86.034 69.022-10.921 64.438 38.201 102.003 86.034 102.003h530.413c55.312 0 86-47.851 82.558-92.979-5.426-58.896-59.321-81.493-88.72-76.651 24.562-13.704 57.365-78.076 7.485-128.682-39.595-37.662-90.07-23.958-107.818-7.532 9.567-31.462-6.122-96.498-70.341-106.784-4.44-.497-8.714-.763-12.787-.763-49.023.007-71.067 35.843-77.985 53.461" fill="#fff"/><path d="m92.306 122.578c-28.003 25.35-38.195 82.79 12.286 116.368l201.391 138.169-97.648-223.713c-20.462-52.791-76.44-64.303-116.029-30.824" fill="#f37021"/><path d="m265.666 13.809c-32.736.667-81.893 39.65-60.017 99.178l100.995 238.186 35.489-250.526c8.212-62.25-38.897-90.986-76.467-86.838" fill="#cc004c"/><path d="m357.893 91.092h19.097s10.198 0 11.586 4.811c-7.515 6.137-27.97 6.906-25.254 39.687l32.103 215.549 100.305-238.811c20.517-53.322-22.548-97.854-60.749-99.215-1.784-.128-3.575-.232-5.429-.232-34.287-.001-73.579 24.918-71.659 78.211" fill="#6460aa"/><path d="m491.692 155.431-94.872 221.029 201.332-138.898c46.41-32.918 38.925-85.546 12.946-111.56-10.891-12.244-30.888-21.702-52.071-21.702-25.026-.005-51.809 13.269-67.335 51.131" fill="#0089d0"/><path d="m575.61 269.011-189.075 132.067h232.806c47.763 0 78.457-49.246 64.812-94.438-9.139-28.406-36.177-50.704-67.56-50.736-13.21.005-27.219 3.984-40.983 13.107" fill="#0db14b"/><path d="m86.881 401.078h229.371l-189.123-132.067c-43.692-28.072-92.82-11.646-110.556 34.939-15.034 53.327 22.503 97.128 70.308 97.128" fill="#fcb711"/><path d="m174.509 516.77c-.001 13.62-20.445 43.321-85.174 43.321-70.208 0-88.595-40.941-88.595-63.433 0-18.747 18.387-62.349 88.595-62.349 70.174 0 85.174 29.283 85.174 42.918h-50.113s-2.38-15.665-30.649-15.665c-28.287 0-35.937 22.336-35.937 35.937 0 13.653 7.65 37.264 35.937 37.264 28.216 0 30.64-17.925 30.649-17.993zm525.558 0c-.001 13.62-20.453 43.321-85.176 43.321-70.189 0-88.595-40.941-88.595-63.433 0-18.747 18.407-62.349 88.595-62.349 70.192 0 85.176 29.283 85.176 42.918h-50.078s-2.391-15.665-30.667-15.665c-28.29 0-35.948 22.336-35.948 35.937 0 13.653 7.658 37.264 35.948 37.264 28.223 0 30.658-17.925 30.667-17.993zm-238.674-80.361c7.493 0 56.317 2.346 56.317 28.566 0 18.414-17.12 27.919-25.308 27.919 0 0 29.64 4.795 29.64 27.621s-17.381 36.495-60.649 36.495h-89.962v-120.601zm-149.925 76.141v-76.141h44.98v120.601h-66.63l-57.3-77.016v77.016h-44.977v-120.601h65.606zm144.127 15.807v-.159c8.002 0 14.469-4.898 14.469-10.939 0-6.056-6.467-10.974-14.469-10.974v-.072h-37.476v22.144zm-1.022-50.445v-.054c6.118 0 11.079-3.99 11.079-8.963 0-4.954-4.961-8.979-11.079-8.979v-.051h-36.11v18.047z" fill="#292526"/></g></svg>

<?xml version="1.0" encoding="UTF-8" standalone="no"?>
<!DOCTYPE svg PUBLIC "-//W3C//DTD SVG 1.1//EN" "http://www.w3.org/Graphics/SVG/1.1/DTD/svg11.dtd">
<svg width="100%" height="100%" viewBox="0 0 560 400" version="1.1" xmlns="http://www.w3.org/2000/svg" xmlns:xlink="http://www.w3.org/1999/xlink" xml:space="preserve" xmlns:serif="http://www.serif.com/" style="fill-rule:evenodd;clip-rule:evenodd;stroke-linejoin:round;stroke-miterlimit:1.41421;">
    <g transform="matrix(0.385271,0,0,0.385271,145,92.1071)">
        <path id="path3113" d="M350.379,53.459C339.454,26.181 312.839,-3.279 262.991,0.768C199.492,7.671 179.704,68.524 189.302,104.827C164.011,87.702 121.008,80.172 83.473,112.324C35.009,160.905 60.932,226.605 87.574,242.364C58.212,239.646 11.806,259.486 1.54,311.386C-9.381,375.824 39.741,413.389 87.574,413.389L617.987,413.389C673.299,413.389 703.987,365.538 700.545,320.41C695.119,261.514 641.224,238.917 611.825,243.759C636.387,230.055 669.19,165.683 619.31,115.077C579.715,77.415 529.24,91.119 511.492,107.545C521.059,76.083 505.37,11.047 441.151,0.761C436.711,0.264 432.437,-0.002 428.364,-0.002C379.341,0.005 357.297,35.841 350.379,53.459" style="fill:white;fill-rule:nonzero;"/>
        <path id="path3115" d="M92.306,122.578C64.303,147.928 54.111,205.368 104.592,238.946L305.983,377.115L208.335,153.402C187.873,100.611 131.895,89.099 92.306,122.578" style="fill:rgb(243,112,33);fill-rule:nonzero;"/>
        <path id="path3117" d="M265.666,13.809C232.93,14.476 183.773,53.459 205.649,112.987L306.644,351.173L342.133,100.647C350.345,38.397 303.236,9.661 265.666,13.809" style="fill:rgb(204,0,76);fill-rule:nonzero;"/>
        <path id="path3119" d="M357.893,91.092L376.99,91.092C376.99,91.092 387.188,91.092 388.576,95.903C381.061,102.04 360.606,102.809 363.322,135.59L395.425,351.139L495.73,112.328C516.247,59.006 473.182,14.474 434.981,13.113C433.197,12.985 431.406,12.881 429.552,12.881C395.265,12.88 355.973,37.799 357.893,91.092" style="fill:rgb(100,96,170);fill-rule:nonzero;"/>
        <path id="path3121" d="M491.692,155.431L396.82,376.46L598.152,237.562C644.562,204.644 637.077,152.016 611.098,126.002C600.207,113.758 580.21,104.3 559.027,104.3C534.001,104.295 507.218,117.569 491.692,155.431" style="fill:rgb(0,137,208);fill-rule:nonzero;"/>
        <path id="path3123" d="M575.61,269.011L386.535,401.078L619.341,401.078C667.104,401.078 697.798,351.832 684.153,306.64C675.014,278.234 647.976,255.936 616.593,255.904C603.383,255.909 589.374,259.888 575.61,269.011" style="fill:rgb(13,177,75);fill-rule:nonzero;"/>
        <path id="path3125" d="M86.881,401.078L316.252,401.078L127.129,269.011C83.437,240.939 34.309,257.365 16.573,303.95C1.539,357.277 39.076,401.078 86.881,401.078" style="fill:rgb(252,183,17);fill-rule:nonzero;"/>
        <path d="M174.509,516.77C174.508,530.39 154.064,560.091 89.335,560.091C19.127,560.091 0.74,519.15 0.74,496.658C0.74,477.911 19.127,434.309 89.335,434.309C159.509,434.309 174.509,463.592 174.509,477.227L124.396,477.227C124.396,477.227 122.016,461.562 93.747,461.562C65.46,461.562 57.81,483.898 57.81,497.499C57.81,511.152 65.46,534.763 93.747,534.763C121.963,534.763 124.387,516.838 124.396,516.77L174.509,516.77ZM700.067,516.77C700.066,530.39 679.614,560.091 614.891,560.091C544.702,560.091 526.296,519.15 526.296,496.658C526.296,477.911 544.703,434.309 614.891,434.309C685.083,434.309 700.067,463.592 700.067,477.227L649.989,477.227C649.989,477.227 647.598,461.562 619.322,461.562C591.032,461.562 583.374,483.898 583.374,497.499C583.374,511.152 591.032,534.763 619.322,534.763C647.545,534.763 649.98,516.838 649.989,516.77L700.067,516.77ZM461.393,436.409C468.886,436.409 517.71,438.755 517.71,464.975C517.71,483.389 500.59,492.894 492.402,492.894C492.402,492.894 522.042,497.689 522.042,520.515C522.042,543.341 504.661,557.01 461.393,557.01L371.431,557.01L371.431,436.409L461.393,436.409ZM311.468,512.55L311.468,436.409L356.448,436.409L356.448,557.01L289.818,557.01L232.518,479.994L232.518,557.01L187.541,557.01L187.541,436.409L253.147,436.409L311.468,512.55ZM455.595,528.357L455.595,528.198C463.597,528.198 470.064,523.3 470.064,517.259C470.064,511.203 463.597,506.285 455.595,506.285L455.595,506.213L418.119,506.213L418.119,528.357L455.595,528.357ZM454.573,477.912L454.573,477.858C460.691,477.858 465.652,473.868 465.652,468.895C465.652,463.941 460.691,459.916 454.573,459.916L454.573,459.865L418.463,459.865L418.463,477.912L454.573,477.912Z" style="fill:rgb(41,37,38);fill-rule:nonzero;"/>
    </g>
</svg>
